src/assets/filled/Smileys.svg

<?xml version="1.0" encoding="UTF-8"?>
<svg width="24" height="24" viewBox="0 0 24 24" xmlns="http://www.w3.org/2000/svg">
 <path d="m10 1h-6c-1.66 0-3 1.34-3 3v6c0 1.66 1.34 3 3 3h4.5c0-2.48 2.02-4.5 4.5-4.5v-4.5c0-1.66-1.34-3-3-3zm-6.23 3.27c0.77-0.55 1.82-0.56 2.61-0.02 0.34 0.23 0.43 0.7 0.2 1.04s-0.7 0.43-1.04 0.2c-0.27-0.19-0.64-0.19-0.91 0.01-0.13 0.09-0.28 0.13-0.43 0.13-0.23 0-0.47-0.11-0.61-0.31-0.24-0.34-0.16-0.81 0.18-1.05zm5.5 3.97c-0.26 0.33-0.73 0.38-1.05 0.12-0.35-0.28-0.77-0.43-1.22-0.43-1 0-1.83 0.76-1.94 1.74h2.1c0.41 0 0.75 0.34 0.75 0.75s-0.34 0.75-0.75 0.75h-2.32c-0.71 0-1.29-0.58-1.29-1.29 0-1.9 1.55-3.45 3.45-3.45 0.78 0 1.55 0.27 2.16 0.76 0.32 0.26 0.37 0.73 0.11 1.05zm1.31-2.95c-0.23 0.34-0.7 0.43-1.04 0.2-0.27-0.19-0.64-0.19-0.91 0.01-0.13 0.09-0.28 0.13-0.43 0.13-0.23 0-0.47-0.11-0.61-0.31-0.24-0.34-0.16-0.81 0.18-1.05 0.77-0.55 1.82-0.56 2.61-0.02 0.34 0.23 0.43 0.7 0.2 1.04z"/>
 <path d="m18.22 16.68c-0.07-0.08-0.17-0.12-0.28-0.12h-3.88c-0.11 0-0.21 0.04-0.28 0.12s-0.11 0.19-0.09 0.29c0.13 1.18 1.12 2.08 2.31 2.08s2.18-0.89 2.31-2.08c0.01-0.11-0.02-0.21-0.09-0.29z"/>
 <path d="m19 10h-6c-1.65 0-3 1.35-3 3v6c0 1.65 1.35 3 3 3h6c1.65 0 3-1.35 3-3v-6c0-1.65-1.35-3-3-3zm-6.41 3.17c0.24-0.34 0.71-0.42 1.05-0.18 0.27 0.19 0.63 0.19 0.9 0.01 0.34-0.24 0.81-0.15 1.04 0.2 0.23 0.34 0.15 0.81-0.2 1.04-0.39 0.26-0.84 0.4-1.29 0.4-0.47 0-0.93-0.14-1.32-0.42-0.34-0.25-0.42-0.72-0.18-1.05zm3.41 7c-1.9 0-3.45-1.55-3.45-3.45 0-0.71 0.58-1.29 1.29-1.29h4.32c0.71 0 1.29 0.58 1.29 1.29 0 1.9-1.55 3.45-3.45 3.45zm3.38-5.94c-0.39 0.26-0.84 0.4-1.29 0.4-0.47 0-0.93-0.14-1.32-0.42-0.34-0.24-0.42-0.71-0.18-1.05s0.71-0.42 1.05-0.18c0.27 0.19 0.63 0.19 0.9 0.01 0.34-0.24 0.81-0.15 1.04 0.2s0.14 0.81-0.2 1.04z"/>
</svg>

<svg width="24" height="24" viewBox="0 0 24 24"  xmlns="http://www.w3.org/2000/svg">
<path d="M10 1H4C2.34 1 1 2.34 1 4V10C1 11.66 2.34 13 4 13H8.5C8.5 10.52 10.52 8.5 13 8.5V4C13 2.34 11.66 1 10 1ZM3.77 4.27C4.54 3.72 5.59 3.71 6.38 4.25C6.72 4.48 6.81 4.95 6.58 5.29C6.35 5.63 5.88 5.72 5.54 5.49C5.27 5.3 4.9 5.3 4.63 5.5C4.5 5.59 4.35 5.63 4.2 5.63C3.97 5.63 3.73 5.52 3.59 5.32C3.35 4.98 3.43 4.51 3.77 4.27ZM9.27 8.24C9.01 8.57 8.54 8.62 8.22 8.36C7.87 8.08 7.45 7.93 7 7.93C6 7.93 5.17 8.69 5.06 9.67H7.16C7.57 9.67 7.91 10.01 7.91 10.42C7.91 10.83 7.57 11.17 7.16 11.17H4.84C4.13 11.17 3.55 10.59 3.55 9.88C3.55 7.98 5.1 6.43 7 6.43C7.78 6.43 8.55 6.7 9.16 7.19C9.48 7.45 9.53 7.92 9.27 8.24ZM10.58 5.29C10.35 5.63 9.88 5.72 9.54 5.49C9.27 5.3 8.9 5.3 8.63 5.5C8.5 5.59 8.35 5.63 8.2 5.63C7.97 5.63 7.73 5.52 7.59 5.32C7.35 4.98 7.43 4.51 7.77 4.27C8.54 3.72 9.59 3.71 10.38 4.25C10.72 4.48 10.81 4.95 10.58 5.29Z" />
<path d="M18.22 16.6796C18.15 16.5996 18.05 16.5596 17.94 16.5596H14.06C13.95 16.5596 13.85 16.5996 13.78 16.6796C13.71 16.7596 13.67 16.8696 13.69 16.9696C13.82 18.1496 14.81 19.0496 16 19.0496C17.19 19.0496 18.18 18.1596 18.31 16.9696C18.32 16.8596 18.29 16.7596 18.22 16.6796Z" />
<path d="M19 10H13C11.35 10 10 11.35 10 13V19C10 20.65 11.35 22 13 22H19C20.65 22 22 20.65 22 19V13C22 11.35 20.65 10 19 10ZM12.59 13.17C12.83 12.83 13.3 12.75 13.64 12.99C13.91 13.18 14.27 13.18 14.54 13C14.88 12.76 15.35 12.85 15.58 13.2C15.81 13.54 15.73 14.01 15.38 14.24C14.99 14.5 14.54 14.64 14.09 14.64C13.62 14.64 13.16 14.5 12.77 14.22C12.43 13.97 12.35 13.5 12.59 13.17ZM16 20.17C14.1 20.17 12.55 18.62 12.55 16.72C12.55 16.01 13.13 15.43 13.84 15.43H18.16C18.87 15.43 19.45 16.01 19.45 16.72C19.45 18.62 17.9 20.17 16 20.17ZM19.38 14.23C18.99 14.49 18.54 14.63 18.09 14.63C17.62 14.63 17.16 14.49 16.77 14.21C16.43 13.97 16.35 13.5 16.59 13.16C16.83 12.82 17.3 12.74 17.64 12.98C17.91 13.17 18.27 13.17 18.54 12.99C18.88 12.75 19.35 12.84 19.58 13.19C19.81 13.54 19.72 14 19.38 14.23Z" />
</svg>
